X:1
T:Annue Christe, 66.66 D
T:Annue Christe, 66.66 D
T:François de la Feillée, 1782
T:Public Domain Courtesy of the Cyber Hymnal™
C:François de la Feillée, 1782
Z:Public Domain
Z:Courtesy of the Cyber Hymnal™
%%score ( 1 2 ) ( 3 4 )
L:1/8
Q:1/4=110
M:4/4
K:A
V:1 treble 
V:2 treble 
V:3 bass 
V:4 bass 
V:1
 [EA]2 | [EA]2 [EB]2 [Ec]2 [Fc]2 | [^Ec]2 [FB]2 [=Ec]2 [Dd]2 | ([Ec]4 [DB]3) [CA] | [CA]6 [EA]2 | %5
 [Ec]2 [Fd]2 [Ee]2 [Ee]2 | [EA]2 [^DF]2 [EG]2 [FA]2 | ([EG]4 [^DF]3) E | E6 [EA]2 | %9
 [EF]2 [DG]2 [CA]2 [CA]2 | [FB]2 [EA]2 [FB]2 [Ec]2 | ([Ed]4 [Ec]3) [EB] | [EB]6 [Ee]2 | %13
 [Ec]2 [FA]2 [Fd]2 [^Ec]2 | [FA]2 [DB]2 [Ec]2 [Fd]2 | ([Ec]4 [GB]3) A | A6 |] %17
V:2
 x2 | x8 | x8 | x8 | x8 | x8 | x8 | x7 E | E6 x2 | x8 | x8 | x8 | x8 | x8 | x8 | x7 A | A6 |] %17
V:3
 [A,C]2 | [A,C]2 [G,B,]2 A,2 [F,A,]2 | [C,G,]2 [D,F,]2 [C,^A,]2 [B,,B,]2 | %3
 ([E,A,]4 [E,G,]3) [A,,A,] | [A,,A,]6 [A,C]2 | [A,C]2 [A,B,]2 [G,B,]2 [G,B,]2 | %6
 [F,C]2 [B,,B,]2 [E,B,]2 [A,,C]2 | ([B,,B,]4 [B,,A,]3) [E,G,] | [E,G,]6 [C,A,]2 | %9
 [D,A,]2 [B,,B,]2 [F,A,]2 [F,A,]2 | [D,F,]2 [C,A,]2 [D,F,]2 [C,A,]2 | ([B,,G,]4 [A,,A,]3) [E,G,] | %12
 [E,G,]6 [G,B,]2 | A,2 [F,A,]2 [B,,G,]2 [C,G,]2 | [F,A,]2 [F,A,]2 [E,A,]2 [D,A,]2 | %15
 ([E,A,]4 [E,D]3) [A,C] | [A,C]6 |] %17
V:4
 x2 | x4 A,2 x2 | x8 | x8 | x8 | x8 | x8 | x8 | x8 | x8 | x8 | x8 | x8 | A,2 x6 | x8 | x8 | x6 |] %17

